**kern	**silbe	**kern	**silbe	**harmony	**phrase	**leadinstrument	**rhyme	**timestamp	**harte
*ICvox	*	*ICvox	*	*M4/4	*	*	*	*	*M4/4
*VRlead	*	*VRharmonize	*	*	*	*	*	*	*
*Hstimme	*	*Nstimme	*	*	*	*	*	*	*
*f#:	*	*f#:	*	*f#:	*	*	*	*	*f#:
*M4/4	*	*M4/4	*	*	*	*	*	*	*
*clefG2	*	*clefG2	*	*	*	*	*	*	*
r;	.	r;	.	1r;	.	r	.	0	N.C.
=1	=1	=1	=1	=1	=1	=1	=1	=1	=1
*>Letter>A	*>Letter>A	*>Letter>A	*>Letter>A	*>Letter>A	*>Letter>A	*>Letter>A	*>Letter>A	*>Letter>A	*>Letter>A
*>Label>Intro	*>Label>Intro	*>Label>Intro	*>Label>Intro	*>Label>Intro	*>Label>Intro	*>Label>Intro	*>Label>Intro	*>Label>Intro	*>Label>Intro
1r	.	1r	.	1F#m	newline	guitar	.	0.673	F#:5
=2	=2	=2	=2	=2	=2	=2	=2	=2	=2
1r	.	1r	.	1F#m	.	guitar	.	2.004	F#:5
=3	=3	=3	=3	=3	=3	=3	=3	=3	=3
1r	.	1r	.	1F#m	.	guitar	.	3.336	F#:5
=4	=4	=4	=4	=4	=4	=4	=4	=4	=4
1r	.	1r	.	1F#m	.	guitar	.	4.667	F#:5
=5	=5	=5	=5	=5	=5	=5	=5	=5	=5
1r	.	1r	.	1F#m	newline	guitar	.	5.998	F#:5
=6	=6	=6	=6	=6	=6	=6	=6	=6	=6
1r	.	1r	.	1F#m	.	guitar	.	7.29	F#:5
=7	=7	=7	=7	=7	=7	=7	=7	=7	=7
1r	.	1r	.	1F#m	.	guitar	.	8.581	F#:5
=8	=8	=8	=8	=8	=8	=8	=8	=8	=8
1r	.	1r	.	1F#m	.	guitar	.	9.873	F#:5
=9	=9	=9	=9	=9	=9	=9	=9	=9	=9
*>Letter>B	*>Letter>B	*>Letter>B	*>Letter>B	*>Letter>B	*>Letter>B	*>Letter>B	*>Letter>B	*>Letter>B	*>Letter>B
*>Label>Verse	*>Label>Verse	*>Label>Verse	*>Label>Verse	*>Label>Verse	*>Label>Verse	*>Label>Verse	*>Label>Verse	*>Label>Verse	*>Label>Verse
4e	Dee	4g#	Dee	1F#m	newline	guitar	.	11.165	F#:5
8r	.	8r	.	.	.	.	.	.	.
8e	dee	8g#	dee	.	.	.	.	.	.
8d#	dee	8f#	dee	.	.	.	.	.	.
4d#	dee	4f#	dee	.	.	.	.	.	.
[8c#	dee	[8e	dee	.	.	.	.	.	.
=10	=10	=10	=10	=10	=10	=10	=10	=10	=10
8c#]	_	8e]	_	1F#m	.	guitar	.	12.45	F#:5
4.c#	dee	4.e	dee	.	.	.	.	.	.
8B	dee	8d#	dee	.	.	.	.	.	.
4B	dee	4d#	dee	.	.	.	.	.	.
[8A#	dee	[8c#	dee	.	.	.	.	.	.
=11	=11	=11	=11	=11	=11	=11	=11	=11	=11
8A#]	_	8c#]	_	1F#m	.	guitar	.	13.735	F#:5
4.A#	dee	4.c#	dee	.	.	.	.	.	.
8G#	dee	8B	dee	.	.	.	.	.	.
4G#	dee	4B	dee	.	.	.	.	.	.
[8F#	dee	[8A#	dee	.	.	.	.	.	.
=12	=12	=12	=12	=12	=12	=12	=12	=12	=12
4F#]	_	4A#]	_	1F#m	.	guitar	.	15.019	F#:5
4r	.	4r	.	.	.	.	.	.	.
2r	.	2r	.	.	.	.	.	.	.
=13	=13	=13	=13	=13	=13	=13	=13	=13	=13
1r	.	1r	.	1F#m	.	guitar	.	16.304	F#:5
=14	=14	=14	=14	=14	=14	=14	=14	=14	=14
4d#	Doo	4f#	Doo	1BMm	newline	guitar	.	17.589	B:7
8r	.	8r	.	.	.	.	.	.	.
8d#	doo	8f#	doo	.	.	.	.	.	.
8c#	doo	8e	doo	.	.	.	.	.	.
4c#	doo	4e	doo	.	.	.	.	.	.
[8B	doo	[8d#	doo	.	.	.	.	.	.
=15	=15	=15	=15	=15	=15	=15	=15	=15	=15
8B]	_	8d#]	_	1BMm	.	guitar	.	18.886	B:7
4.B	doo	4.d#	doo	.	.	.	.	.	.
8B	doo	8d#	doo	.	.	.	.	.	.
4B	doo	4d#	doo	.	.	.	.	.	.
[8A	doo	[8c#	doo	.	.	.	.	.	.
=16	=16	=16	=16	=16	=16	=16	=16	=16	=16
4A]	_	4c#]	_	1BMm	.	guitar	.	20.183	B:7
4r	.	4r	.	.	.	.	.	.	.
2r	.	2r	.	.	.	.	.	.	.
=17	=17	=17	=17	=17	=17	=17	=17	=17	=17
1r	.	1r	.	1BMm	.	guitar	.	21.481	B:7
=18	=18	=18	=18	=18	=18	=18	=18	=18	=18
4r	.	4r	.	1EM	newline	guitar	.	22.778	E:maj
8e	Dee	8g#	Dee	.	.	.	.	.	.
8e	dee	8g#	dee	.	.	.	.	.	.
8d	dee	8f#	dee	.	.	.	.	.	.
4d	dee	4f#	dee	.	.	.	.	.	.
[8c#	dee	[8e	dee	.	.	.	.	.	.
=19	=19	=19	=19	=19	=19	=19	=19	=19	=19
8c#]	_	8e]	_	1AM	.	guitar	.	24.078	A:maj
4.c#	dee	4.e	dee	.	.	.	.	.	.
8B	dee	8d	dee	.	.	.	.	.	.
4A	dee	4c#	dee	.	.	.	.	.	.
[8d	dee	[8f#	dee	.	.	.	.	.	.
=20	=20	=20	=20	=20	=20	=20	=20	=20	=20
4d]	_	4f#]	_	2DM	.	guitar	.	25.377	D:maj
4d	dee	4f#	dee	.	.	.	.	.	.
8c#	dee	8e	dee	2DM	.	guitar	.	26.027	D:maj/7
4c#	dee	4e	dee	.	.	.	.	.	.
[8B	dee	[8d	dee	.	.	.	.	.	.
=21	=21	=21	=21	=21	=21	=21	=21	=21	=21
4B]	_	4d]	_	1Bm	.	guitar	.	26.677	B:min
4r	.	4r	.	.	.	.	.	.	.
2r	.	2r	.	.	.	.	.	.	.
=22	=22	=22	=22	=22	=22	=22	=22	=22	=22
1r	.	1r	.	1Bm	.	guitar	.	27.977	B:min
=23	=23	=23	=23	=23	=23	=23	=23	=23	=23
1r	.	1r	.	1F#Mm	newline	guitar	.	29.276	F#:7
=24	=24	=24	=24	=24	=24	=24	=24	=24	=24
1r	.	1r	.	1F#Mm	.	guitar	.	30.584	F#:7
=25	=25	=25	=25	=25	=25	=25	=25	=25	=25
1r	.	1r	.	1EMm	.	guitar	.	31.893	E:7
=26	=26	=26	=26	=26	=26	=26	=26	=26	=26
4r	.	4r	.	1EMm	.	guitar	.	33.201	E:7
4G#	And	4B	And	.	.	.	.	.	.
4A	here's	4c#	here's	.	.	.	.	.	.
8B	to	8d	to	.	.	.	.	.	.
[8c#	you	[8e	you	.	.	.	.	.	.
=27	=27	=27	=27	=27	=27	=27	=27	=27	=27
*>Letter>C	*>Letter>C	*>Letter>C	*>Letter>C	*>Letter>C	*>Letter>C	*>Letter>C	*>Letter>C	*>Letter>C	*>Letter>C
*>Label>Chorus	*>Label>Chorus	*>Label>Chorus	*>Label>Chorus	*>Label>Chorus	*>Label>Chorus	*>Label>Chorus	*>Label>Chorus	*>Label>Chorus	*>Label>Chorus
2c#]	_	2e]	_	1AM	newline	voice	.	34.509	A:maj
8c#	Mr-	8e	Mr-	.	.	.	.	.	.
4d	-s.	4f#	-s.	.	.	.	.	.	.
[8c#	Ro-	[8f#	Ro-	.	.	.	.	.	.
=28	=28	=28	=28	=28	=28	=28	=28	=28	=28
8c#]	_	8f#]	_	1F#m	.	voice	.	35.821	F#:min
4B	-bin-	4f#	-bin-	.	.	.	.	.	.
4.A	-son	4.c#	-son	.	.	.	.	.	.
4r	.	4r	.	.	.	.	.	.	.
=29	=29	=29	=29	=29	=29	=29	=29	=29	=29
4e	Je-	4a	Je-	1AM	.	voice	.	37.133	A:maj
4c#	-sus	4e	-sus	.	.	.	.	.	.
8c#	loves	8e	loves	.	.	.	.	.	.
4d	you	4f#	you	.	.	.	.	.	.
[8c#	more	[8f#	more	.	.	.	.	.	.
=30	=30	=30	=30	=30	=30	=30	=30	=30	=30
8c#]	_	8f#]	_	1F#m	.	voice	.	38.445	F#:min
4B	than	4d	than	.	.	.	.	.	.
4A	you	4c#	you	.	.	.	.	.	.
4B	will	4d	will	.	.	.	.	.	.
[8A	know	8c#	know	.	.	.	A	.	.
=31	=31	=31	=31	=31	=31	=31	=31	=31	=31
4A]	_	4d	_	1DM	newline	voice	.	39.757	D:maj
4r	.	4r	.	.	.	.	.	.	.
2r	.	2r	.	.	.	.	.	.	.
=32	=32	=32	=32	=32	=32	=32	=32	=32	=32
4.r	.	4.r	.	1DM	.	voice	.	41.078	D:maj
4d	Wo	4f#	Wo	.	.	.	A	.	.
4c#	wo	4e	wo	.	.	.	A	.	.
[8B	wo	[8e	wo	.	.	.	A	.	.
=33	=33	=33	=33	=33	=33	=33	=33	=33	=33
4B]	_	4e]	_	1EM	.	voice	.	42.4	E:maj
4r	.	4r	.	.	.	.	.	.	.
2r	.	2r	.	.	.	.	.	.	.
=34	=34	=34	=34	=34	=34	=34	=34	=34	=34
4r	.	4r	.	1EM	.	voice	.	43.722	E:maj
4G#	God	4B	God	.	.	.	.	.	.
8A	bless	8c#	bless	.	.	.	.	.	.
4B	you	4d	you	.	.	.	.	.	.
[8c#	please	[8e	please	.	.	.	.	.	.
=35	=35	=35	=35	=35	=35	=35	=35	=35	=35
4c#]	_	4e]	_	1AM	newline	voice	.	45.043	A:maj
4r	.	4r	.	.	.	.	.	.	.
8c#	Mr-	8e	Mr-	.	.	.	.	.	.
4d	-s.	4f#	-s.	.	.	.	.	.	.
[8c#	Ro-	[8f#	Ro-	.	.	.	.	.	.
=36	=36	=36	=36	=36	=36	=36	=36	=36	=36
8c#]	_	8f#]	_	1F#m	.	voice	.	46.359	F#:min
4B	-bin-	4f#	-bin-	.	.	.	.	.	.
4.A	-son	4.c#	-son	.	.	.	.	.	.
4r	.	4r	.	.	.	.	.	.	.
=37	=37	=37	=37	=37	=37	=37	=37	=37	=37
8e	Heav-	8a	Heav-	1AM	.	voice	.	47.674	A:maj
4c#	-en	4e	-en	.	.	.	.	.	.
4.c#	holds	4.e	holds	.	.	.	.	.	.
8d	a	8f#	a	.	.	.	.	.	.
[8c#	place	[8f#	place	.	.	.	B	.	.
=38	=38	=38	=38	=38	=38	=38	=38	=38	=38
8c#]	_	8f#]	_	1F#m	.	voice	.	48.99	F#:min
4B	for	4d	for	.	.	.	.	.	.
4.A	those	4.c#	those	.	.	.	.	.	.
8B	who	8d	who	.	.	.	.	.	.
[8A	pray	[8d	pray	.	.	.	B	.	.
=39	=39	=39	=39	=39	=39	=39	=39	=39	=39
4A]	_	4d]	_	1DM	newline	voice	.	50.305	D:maj
4r	.	4r	.	.	.	.	.	.	.
2r	.	2r	.	.	.	.	.	.	.
=40	=40	=40	=40	=40	=40	=40	=40	=40	=40
4.r	.	4.r	.	1DM	.	voice	.	51.617	D:maj
4d	Hey	4f#	Hey	.	.	.	B	.	.
4c#	hey	4e	hey	.	.	.	B	.	.
[8B	hey	[8d	hey	.	.	.	B	.	.
=41	=41	=41	=41	=41	=41	=41	=41	=41	=41
4B]	_	4d]	_	1Bm	.	voice	.	52.929	B:min
4r	.	4r	.	.	.	.	.	.	.
2r	.	2r	.	.	.	.	.	.	.
=42	=42	=42	=42	=42	=42	=42	=42	=42	=42
4r	.	4r	.	1Bm	.	voice	.	54.24	B:min
8r	.	8r	.	.	.	.	.	.	.
[8B	hey	[8e	hey	.	.	.	.	.	.
8B]	_	8e]	_	.	.	.	.	.	.
4B	hey	4d	hey	.	.	.	.	.	.
[8A#	hey	[8c#	hey	.	.	.	.	.	.
=43	=43	=43	=43	=43	=43	=43	=43	=43	=43
*>Letter>A	*>Letter>A	*>Letter>A	*>Letter>A	*>Letter>A	*>Letter>A	*>Letter>A	*>Letter>A	*>Letter>A	*>Letter>A
*>Label>Trans	*>Label>Trans	*>Label>Trans	*>Label>Trans	*>Label>Trans	*>Label>Trans	*>Label>Trans	*>Label>Trans	*>Label>Trans	*>Label>Trans
4A#]	_	4c#]	_	1F#m	newline	guitar	.	55.552	F#:5
4r	.	4r	.	.	.	.	.	.	.
2r	.	2r	.	.	.	.	.	.	.
=44	=44	=44	=44	=44	=44	=44	=44	=44	=44
1r	.	1r	.	1F#m	.	guitar	.	56.867	F#:5
=45	=45	=45	=45	=45	=45	=45	=45	=45	=45
1r	.	1r	.	1F#m	.	guitar	.	58.183	F#:5
=46	=46	=46	=46	=46	=46	=46	=46	=46	=46
2r	.	2r	.	1F#m	.	guitar	.	59.498	F#:5
4r	.	4r	.	.	.	.	.	.	.
4e	We'd	4g#	We'd	.	.	.	.	.	.
=47	=47	=47	=47	=47	=47	=47	=47	=47	=47
*>Letter>B	*>Letter>B	*>Letter>B	*>Letter>B	*>Letter>B	*>Letter>B	*>Letter>B	*>Letter>B	*>Letter>B	*>Letter>B
*>Label>Verse	*>Label>Verse	*>Label>Verse	*>Label>Verse	*>Label>Verse	*>Label>Verse	*>Label>Verse	*>Label>Verse	*>Label>Verse	*>Label>Verse
4e	like	4g#	like	1F#m	newline	voice	.	60.814	F#:5
8e	to	8g#	to	.	.	.	.	.	.
4d#	know	4f#	know	.	.	.	.	.	.
4d#	a	4f#	a	.	.	.	.	.	.
[8c#	li-	[8e	li-	.	.	.	.	.	.
=48	=48	=48	=48	=48	=48	=48	=48	=48	=48
8c#]	_	8e]	_	1F#m	.	voice	.	62.097	F#:5
4.c#	-ttle	4.e	-ttle	.	.	.	.	.	.
4B	bit	4d#	bit	.	.	.	.	.	.
8B	a-	8d#	a-	.	.	.	.	.	.
[8A#	-bout	[8c#	-bout	.	.	.	.	.	.
=49	=49	=49	=49	=49	=49	=49	=49	=49	=49
4A#]	_	4c#]	_	1F#m	.	voice	.	63.379	F#:5
8A#	you	8c#	you	.	.	.	.	.	.
4G#	for	4B	for	.	.	.	.	.	.
4F#	our	4A#	our	.	.	.	.	.	.
[8F#	files	[8A#	files	.	.	.	C	.	.
=50	=50	=50	=50	=50	=50	=50	=50	=50	=50
2F#]	_	2A#]	_	1F#m	.	voice	.	64.662	F#:5
2r	.	2r	.	.	.	.	.	.	.
=51	=51	=51	=51	=51	=51	=51	=51	=51	=51
2r	.	2r	.	1F#m	.	voice	.	65.944	F#:5
4r	.	4r	.	.	.	.	.	.	.
4d#	We'd	4f#	We'd	.	.	.	.	.	.
=52	=52	=52	=52	=52	=52	=52	=52	=52	=52
4d#	like	4f#	like	1BMm	newline	voice	.	67.227	B:7
8d#	to	8f#	to	.	.	.	.	.	.
4c#	help	4e	help	.	.	.	.	.	.
4.c#	you	4.e	you	.	.	.	.	.	.
=53	=53	=53	=53	=53	=53	=53	=53	=53	=53
4.B	learn	4.d#	learn	1BMm	.	voice	.	68.532	B:7
8B	to	8d#	to	.	.	.	.	.	.
4B	help	4d#	help	.	.	.	.	.	.
[4B	your	[4d#	your	.	.	.	.	.	.
=54	=54	=54	=54	=54	=54	=54	=54	=54	=54
4B]	_	4d#]	_	1BMm	.	voice	.	69.836	B:7
2A	self	2c#	self	.	.	.	.	.	.
4r	.	4r	.	.	.	.	.	.	.
=55	=55	=55	=55	=55	=55	=55	=55	=55	=55
1r	.	1r	.	1BMm	.	voice	.	71.141	B:7
=56	=56	=56	=56	=56	=56	=56	=56	=56	=56
4r	.	4r	.	1EM	newline	voice	.	72.446	E:maj
8e	Look	8e	Look	.	.	.	.	.	.
8e	a-	8e	a-	.	.	.	.	.	.
8e	-round	8e	-round	.	.	.	.	.	.
8d	_	8d	_	.	.	.	.	.	.
8d	you	8d	you	.	.	.	.	.	.
[8c#	all	[8c#	all	.	.	.	.	.	.
=57	=57	=57	=57	=57	=57	=57	=57	=57	=57
4c#]	_	4c#]	_	1AM	.	voice	.	73.752	A:maj
8c#	you	8c#	you	.	.	.	.	.	.
4B	see	4B	see	.	.	.	.	.	.
4.A	are	4.A	are	.	.	.	.	.	.
=58	=58	=58	=58	=58	=58	=58	=58	=58	=58
4d	sym-	4d	sym-	2DM	.	voice	.	75.058	D:maj
8d	-pa-	8d	-pa-	.	.	.	.	.	.
4c#	-the-	4c#	-the-	.	.	.	.	.	.
.	.	.	.	2DM	.	voice	.	75.711	D:maj/7
8A	-tic	8A	-tic	.	.	.	.	.	.
[4B	eyes	[4B	eyes	.	.	.	C	.	.
=59	=59	=59	=59	=59	=59	=59	=59	=59	=59
4B]	_	4B]	_	1Bm	.	voice	.	76.365	B:min
4r	.	4r	.	.	.	.	.	.	.
2r	.	2r	.	.	.	.	.	.	.
=60	=60	=60	=60	=60	=60	=60	=60	=60	=60
1r	.	1r	.	1Bm	.	voice	.	77.671	B:min
=61	=61	=61	=61	=61	=61	=61	=61	=61	=61
4r	.	4r	.	1F#Mm	newline	voice	.	78.977	F#:7
2c#	Stroll	2c#	Stroll	.	.	.	.	.	.
8B	a-	8B	a-	.	.	.	.	.	.
[8A#	-round	[8A#	-round	.	.	.	.	.	.
=62	=62	=62	=62	=62	=62	=62	=62	=62	=62
4A#]	_	4A#]	_	1F#Mm	.	voice	.	80.282	F#:7
8F#	the	8F#	the	.	.	.	.	.	.
4.G#	grounds	4.G#	grounds	.	.	.	.	.	.
4A#	un-	4A#	un-	.	.	.	.	.	.
=63	=63	=63	=63	=63	=63	=63	=63	=63	=63
4B	-til	4B	-til	1EMm	.	voice	.	81.587	E:7
4A#	you	4A#	you	.	.	.	.	.	.
4G#	feel	4G#	feel	.	.	.	.	.	.
8F#	at	8F#	at	.	.	.	.	.	.
[8G#	home	[8G#	home	.	.	.	A	.	.
=64	=64	=64	=64	=64	=64	=64	=64	=64	=64
4G#]	_	4G#]	_	1EMm	.	voice	.	82.891	E:7
4G#	And	4B	And	.	.	.	.	.	.
4A	here's	4c#	here's	.	.	.	.	.	.
8B	to	8d	to	.	.	.	.	.	.
[8c#	you	[8e	you	.	.	.	.	.	.
=65	=65	=65	=65	=65	=65	=65	=65	=65	=65
*>Letter>C	*>Letter>C	*>Letter>C	*>Letter>C	*>Letter>C	*>Letter>C	*>Letter>C	*>Letter>C	*>Letter>C	*>Letter>C
*>Label>Chorus	*>Label>Chorus	*>Label>Chorus	*>Label>Chorus	*>Label>Chorus	*>Label>Chorus	*>Label>Chorus	*>Label>Chorus	*>Label>Chorus	*>Label>Chorus
4c#]	_	4e]	_	1AM	newline	voice	.	84.196	A:maj
4r	.	4r	.	.	.	.	.	.	.
8c#	Mr-	8e	Mr-	.	.	.	.	.	.
4d	-s.	4f#	-s.	.	.	.	.	.	.
[8c#	Ro-	[8e	Ro-	.	.	.	.	.	.
=66	=66	=66	=66	=66	=66	=66	=66	=66	=66
8c#]	_	8e]	_	1F#m	.	voice	.	85.517	F#:min
4B	-bin-	4d	-bin-	.	.	.	.	.	.
4.A	-son	4.c#	-son	.	.	.	.	.	.
4r	.	4r	.	.	.	.	.	.	.
=67	=67	=67	=67	=67	=67	=67	=67	=67	=67
4e	Je-	4a	Je-	1AM	.	voice	.	86.839	A:maj
4c#	-sus	4e	-sus	.	.	.	.	.	.
8c#	loves	8e	loves	.	.	.	.	.	.
4d	you	4f#	you	.	.	.	.	.	.
[8c#	more	[8e	more	.	.	.	.	.	.
=68	=68	=68	=68	=68	=68	=68	=68	=68	=68
8c#]	_	8e]	_	1F#m	.	voice	.	88.16	F#:min
4B	than	4d	than	.	.	.	.	.	.
4A	you	4c#	you	.	.	.	.	.	.
4B	will	4d	will	.	.	.	.	.	.
[8A	know	8c#	know	.	.	.	A	.	.
=69	=69	=69	=69	=69	=69	=69	=69	=69	=69
4A]	_	4d	_	1DM	newline	voice	.	89.482	D:maj
4r	.	4r	.	.	.	.	.	.	.
2r	.	2r	.	.	.	.	.	.	.
=70	=70	=70	=70	=70	=70	=70	=70	=70	=70
4.r	.	4.r	.	1DM	.	voice	.	90.795	D:maj
4d	Wo	4f#	Wo	.	.	.	A	.	.
4c#	wo	4e	wo	.	.	.	A	.	.
[8B	wo	[8e	wo	.	.	.	A	.	.
=71	=71	=71	=71	=71	=71	=71	=71	=71	=71
4B]	_	4e]	_	1EM	.	voice	.	92.109	E:maj
4r	.	4r	.	.	.	.	.	.	.
2r	.	2r	.	.	.	.	.	.	.
=72	=72	=72	=72	=72	=72	=72	=72	=72	=72
4r	.	4r	.	1EM	.	voice	.	93.423	E:maj
4G#	God	4B	God	.	.	.	.	.	.
8A	bless	8c#	bless	.	.	.	.	.	.
4B	you	4d	you	.	.	.	.	.	.
[8c#	please	[8e	please	.	.	.	.	.	.
=73	=73	=73	=73	=73	=73	=73	=73	=73	=73
4c#]	_	4e]	_	1AM	newline	voice	.	94.737	A:maj
4r	.	4r	.	.	.	.	.	.	.
8c#	Mr-	8e	Mr-	.	.	.	.	.	.
4d	-s.	4f#	-s.	.	.	.	.	.	.
[8c#	Ro-	[8e	Ro-	.	.	.	.	.	.
=74	=74	=74	=74	=74	=74	=74	=74	=74	=74
8c#]	_	8e]	_	1F#m	.	voice	.	96.055	F#:min
4B	-bin-	4d	-bin-	.	.	.	.	.	.
4.A	-son	4.c#	-son	.	.	.	.	.	.
4r	.	4r	.	.	.	.	.	.	.
=75	=75	=75	=75	=75	=75	=75	=75	=75	=75
8e	Heav-	8a	Heav-	1AM	.	voice	.	97.374	A:maj
4c#	-en	4e	-en	.	.	.	.	.	.
4.c#	holds	4.e	holds	.	.	.	.	.	.
8d	a	8f#	a	.	.	.	.	.	.
[8c#	place	8e	place	.	.	.	B	.	.
=76	=76	=76	=76	=76	=76	=76	=76	=76	=76
8c#]	_	8f#	_	1F#m	.	voice	.	98.693	F#:min
4B	for	4d	for	.	.	.	.	.	.
4.A	those	4.c#	those	.	.	.	.	.	.
8B	who	8d	who	.	.	.	.	.	.
[8A	pray	[8d	pray	.	.	.	B	.	.
=77	=77	=77	=77	=77	=77	=77	=77	=77	=77
4A]	_	4d]	_	1DM	newline	voice	.	100.011	D:maj
4r	.	4r	.	.	.	.	.	.	.
2r	.	2r	.	.	.	.	.	.	.
=78	=78	=78	=78	=78	=78	=78	=78	=78	=78
4.r	.	4.r	.	1DM	.	voice	.	101.311	D:maj
4d	Hey	4f#	Hey	.	.	.	B	.	.
4c#	hey	4e	hey	.	.	.	B	.	.
[8B	hey	[8d	hey	.	.	.	B	.	.
=79	=79	=79	=79	=79	=79	=79	=79	=79	=79
4B]	_	4d]	_	1Bm	.	voice	.	102.61	B:min
4r	.	4r	.	.	.	.	.	.	.
2r	.	2r	.	.	.	.	.	.	.
=80	=80	=80	=80	=80	=80	=80	=80	=80	=80
4.r	.	4.r	.	1Bm	.	voice	.	103.909	B:min
4B	hey	4e	hey	.	.	.	B	.	.
4B	hey	4d	hey	.	.	.	B	.	.
[8A#	hey	[8c#	hey	.	.	.	B	.	.
=81	=81	=81	=81	=81	=81	=81	=81	=81	=81
*>Letter>A	*>Letter>A	*>Letter>A	*>Letter>A	*>Letter>A	*>Letter>A	*>Letter>A	*>Letter>A	*>Letter>A	*>Letter>A
*>Label>Trans	*>Label>Trans	*>Label>Trans	*>Label>Trans	*>Label>Trans	*>Label>Trans	*>Label>Trans	*>Label>Trans	*>Label>Trans	*>Label>Trans
4A#]	_	4c#]	_	1F#m	newline	guitar	.	105.209	F#:5
4r	.	4r	.	.	.	.	.	.	.
2r	.	2r	.	.	.	.	.	.	.
=82	=82	=82	=82	=82	=82	=82	=82	=82	=82
1r	.	1r	.	1F#m	.	guitar	.	106.535	F#:5
=83	=83	=83	=83	=83	=83	=83	=83	=83	=83
1r	.	1r	.	1F#m	.	guitar	.	107.861	F#:5
=84	=84	=84	=84	=84	=84	=84	=84	=84	=84
1r	.	1r	.	1F#m	.	guitar	.	109.188	F#:5
=85	=85	=85	=85	=85	=85	=85	=85	=85	=85
*>Letter>B	*>Letter>B	*>Letter>B	*>Letter>B	*>Letter>B	*>Letter>B	*>Letter>B	*>Letter>B	*>Letter>B	*>Letter>B
*>Label>Verse	*>Label>Verse	*>Label>Verse	*>Label>Verse	*>Label>Verse	*>Label>Verse	*>Label>Verse	*>Label>Verse	*>Label>Verse	*>Label>Verse
4r	.	4r	.	1F#m	newline	voice	.	110.514	F#:5
8e	Hide	8g#	Hide	.	.	.	.	.	.
8e	it	8g#	it	.	.	.	.	.	.
8d#	in	8f#	in	.	.	.	.	.	.
4d#	a	4f#	a	.	.	.	.	.	.
[8c#	hi-	[8e	hi-	.	.	.	.	.	.
=86	=86	=86	=86	=86	=86	=86	=86	=86	=86
8c#]	_	8e]	_	1F#m	.	voice	.	111.811	F#:5
4c#	-ding	4e	-ding	.	.	.	.	.	.
4.B	place	4.d#	place	.	.	.	.	.	.
4B	where	4d#	where	.	.	.	.	.	.
=87	=87	=87	=87	=87	=87	=87	=87	=87	=87
4A#	no	4c#	no	1F#m	.	voice	.	113.108	F#:5
8B	one	8d#	one	.	.	.	.	.	.
4A#	e-	4c#	e-	.	.	.	.	.	.
4G#	-ver	4B	-ver	.	.	.	.	.	.
[8F#	goes	[8A#	goes	.	.	.	A	.	.
=88	=88	=88	=88	=88	=88	=88	=88	=88	=88
2F#]	_	2A#]	_	1F#m	.	voice	.	114.406	F#:5
2r	.	2r	.	.	.	.	.	.	.
=89	=89	=89	=89	=89	=89	=89	=89	=89	=89
1r	.	1r	.	1F#m	.	voice	.	115.703	F#:5
=90	=90	=90	=90	=90	=90	=90	=90	=90	=90
*clefF4	*	*clefF4	*	*	*	*	*	*	*
4r	.	4r	.	1BMm	newline	voice	.	117	B:7
=91	=91	=91	=91	=91	=91	=91	=91	=91	=91
.	.	.	.	1BMm	.	voice	.	118.286	B:7
8BB	Put	8BB	Put	.	.	.	.	.	.
8BB	it	8BB	it	.	.	.	.	.	.
8D#	in	8D#	in	.	.	.	.	.	.
4F#	your	4F#	your	.	.	.	.	.	.
[8B	pan-	[8B	pan-	.	.	.	.	.	.
=91	=91	=91	=91	=91	=91	=91	=91	=91	=91
4B]	_	4B]	_	.	.	.	.	.	.
8D#	-try	8D#	-try	.	.	.	.	.	.
4D#	with	4D#	with	.	.	.	.	.	.
4F#	your	4F#	your	.	.	.	.	.	.
[8B	cup-	[8B	cup-	.	.	.	.	.	.
=92	=92	=92	=92	=92	=92	=92	=92	=92	=92
8B]	_	8B]	_	1BMm	.	voice	.	119.571	B:7
4.A	-cakes	4.A	-cakes	.	.	.	B	.	.
2r	.	2r	.	.	.	.	.	.	.
=93	=93	=93	=93	=93	=93	=93	=93	=93	=93
1r	.	1r	.	1BMm	.	voice	.	120.856	B:7
=94	=94	=94	=94	=94	=94	=94	=94	=94	=94
*clefG2	*	*clefG2	*	*	*	*	*	*	*
4r	.	4r	.	1EM	newline	voice	.	122.141	E:maj
8e	It's	8e	It's	.	.	.	.	.	.
8e	a	8e	a	.	.	.	.	.	.
8e	li-	8e	li-	.	.	.	.	.	.
4d	-ttle	4d	-ttle	.	.	.	.	.	.
[8c#	se-	[8c#	se-	.	.	.	.	.	.
=95	=95	=95	=95	=95	=95	=95	=95	=95	=95
8c#]	_	8c#]	_	1AM	.	voice	.	123.466	A:maj
4.c#	-cret	4.c#	-cret	.	.	.	.	.	.
4B	just	4B	just	.	.	.	.	.	.
8A	a	8A	a	.	.	.	.	.	.
[8d	Ro-	[8d	Ro-	.	.	.	.	.	.
=96	=96	=96	=96	=96	=96	=96	=96	=96	=96
8d]	_	8d]	_	2DM	.	voice	.	124.79	D:maj
4.d	-bin-	4.d	-bin-	.	.	.	.	.	.
4c#	-son's	4c#	-son's	2DM	.	voice	.	125.452	D:maj/7
8A	aff-	8A	aff-	.	.	.	.	.	.
[8B	-air	[8B	-air	.	.	.	.	.	.
=97	=97	=97	=97	=97	=97	=97	=97	=97	=97
4B]	_	4B]	_	1Bm	.	voice	.	126.114	B:min
4r	.	4r	.	.	.	.	.	.	.
2r	.	2r	.	.	.	.	.	.	.
=98	=98	=98	=98	=98	=98	=98	=98	=98	=98
1r	.	1r	.	1Bm	.	voice	.	127.438	B:min
=99	=99	=99	=99	=99	=99	=99	=99	=99	=99
4r	.	4r	.	1F#Mm	newline	voice	.	128.762	F#:7
2c#	Most	2c#	Most	.	.	.	.	.	.
8B	of	8B	of	.	.	.	.	.	.
[8A#	all	[8A#	all	.	.	.	.	.	.
=100	=100	=100	=100	=100	=100	=100	=100	=100	=100
4A#]	_	4A#]	_	1F#Mm	.	voice	.	130.052	F#:7
8F#	you've	8F#	you've	.	.	.	.	.	.
4G#	got	4G#	got	.	.	.	.	.	.
4A#	to	4A#	to	.	.	.	.	.	.
[8B	hide	[8B	hide	.	.	.	.	.	.
=101	=101	=101	=101	=101	=101	=101	=101	=101	=101
4B]	_	4B]	_	1EMm	.	voice	.	131.342	E:7
4A#	it	4A#	it	.	.	.	.	.	.
4G#	from	4G#	from	.	.	.	.	.	.
8F#	the	8F#	the	.	.	.	.	.	.
[8G#	kids	[8G#	kids	.	.	.	.	.	.
=102	=102	=102	=102	=102	=102	=102	=102	=102	=102
4G#]	_	4G#]	_	1EMm	.	voice	.	132.632	E:7
4G#	Koo	4B	Koo	.	.	.	.	.	.
4A	Koo	4c#	Koo	.	.	.	.	.	.
8B	Ka-	8d	Ka-	.	.	.	.	.	.
[8c#	-choo	[8e	-choo	.	.	.	.	.	.
=103	=103	=103	=103	=103	=103	=103	=103	=103	=103
*>Letter>C	*>Letter>C	*>Letter>C	*>Letter>C	*>Letter>C	*>Letter>C	*>Letter>C	*>Letter>C	*>Letter>C	*>Letter>C
*>Label>Chorus	*>Label>Chorus	*>Label>Chorus	*>Label>Chorus	*>Label>Chorus	*>Label>Chorus	*>Label>Chorus	*>Label>Chorus	*>Label>Chorus	*>Label>Chorus
4c#]	_	4e]	_	1AM	newline	voice	.	133.922	A:maj
4r	.	4r	.	.	.	.	.	.	.
8c#	Mr-	8e	Mr-	.	.	.	.	.	.
4d	-s.	4f#	-s.	.	.	.	.	.	.
[8c#	Ro-	[8e	Ro-	.	.	.	.	.	.
=104	=104	=104	=104	=104	=104	=104	=104	=104	=104
8c#]	_	8e]	_	1F#m	.	voice	.	135.245	F#:min
4B	-bin-	4d	-bin-	.	.	.	.	.	.
4.A	-son	4.c#	-son	.	.	.	.	.	.
4r	.	4r	.	.	.	.	.	.	.
=105	=105	=105	=105	=105	=105	=105	=105	=105	=105
4e	Je-	4a	Je-	1AM	.	voice	.	136.567	A:maj
4c#	-sus	4e	-sus	.	.	.	.	.	.
8c#	loves	8e	loves	.	.	.	.	.	.
4d	you	4f#	you	.	.	.	.	.	.
[8c#	more	[8e	more	.	.	.	.	.	.
=106	=106	=106	=106	=106	=106	=106	=106	=106	=106
8c#]	_	8e]	_	1F#m	.	voice	.	137.89	F#:min
4B	than	4d	than	.	.	.	.	.	.
4A	you	4c#	you	.	.	.	.	.	.
4B	will	4d	will	.	.	.	.	.	.
[8A	know	8c#	know	.	.	.	A	.	.
=107	=107	=107	=107	=107	=107	=107	=107	=107	=107
4A]	_	4d	_	1DM	newline	voice	.	139.212	D:maj
4r	.	4r	.	.	.	.	.	.	.
2r	.	2r	.	.	.	.	.	.	.
=108	=108	=108	=108	=108	=108	=108	=108	=108	=108
4.r	.	4.r	.	1DM	.	voice	.	140.523	D:maj
4d	Wo	4f#	Wo	.	.	.	A	.	.
4.c#	wo	4.e	wo	.	.	.	A	.	.
=109	=109	=109	=109	=109	=109	=109	=109	=109	=109
4B	wo	4e	wo	1EM	.	voice	A	141.833	E:maj
4r	.	4r	.	.	.	.	.	.	.
2r	.	2r	.	.	.	.	.	.	.
=110	=110	=110	=110	=110	=110	=110	=110	=110	=110
4r	.	4r	.	1EM	.	voice	.	143.144	E:maj
4G#	God	4B	God	.	.	.	.	.	.
4A	bless	4c#	bless	.	.	.	.	.	.
8B	you	8d	you	.	.	.	.	.	.
[8c#	please	[8e	please	.	.	.	.	.	.
=111	=111	=111	=111	=111	=111	=111	=111	=111	=111
2c#]	_	2e]	_	1AM	newline	voice	.	144.454	A:maj
8c#	Mr-	8e	Mr-	.	.	.	.	.	.
4d	-s.	4f#	-s.	.	.	.	.	.	.
[8c#	Ro-	[8e	Ro-	.	.	.	.	.	.
=112	=112	=112	=112	=112	=112	=112	=112	=112	=112
8c#]	_	8e]	_	1F#m	.	voice	.	145.767	F#:min
4B	-bin-	4d	-bin-	.	.	.	.	.	.
4.A	-son	4.c#	-son	.	.	.	.	.	.
4r	.	4r	.	.	.	.	.	.	.
=113	=113	=113	=113	=113	=113	=113	=113	=113	=113
8e	Heav-	8a	Heav-	1AM	.	voice	.	147.081	A:maj
4c#	-en	4e	-en	.	.	.	.	.	.
4.c#	holds	4.e	holds	.	.	.	.	.	.
8d	a	8f#	a	.	.	.	.	.	.
[8c#	place	[8e	place	.	.	.	B	.	.
=114	=114	=114	=114	=114	=114	=114	=114	=114	=114
8c#]	_	8e]	_	1F#m	.	voice	.	148.394	F#:min
4B	for	4d	for	.	.	.	.	.	.
4.A	those	4.c#	those	.	.	.	.	.	.
8B	who	8d	who	.	.	.	.	.	.
[8A	pray	[8d	pray	.	.	.	B	.	.
=115	=115	=115	=115	=115	=115	=115	=115	=115	=115
4A]	_	4d]	_	1DM	newline	voice	.	149.707	D:maj
4r	.	4r	.	.	.	.	.	.	.
2r	.	2r	.	.	.	.	.	.	.
=116	=116	=116	=116	=116	=116	=116	=116	=116	=116
4.r	.	4.r	.	1DM	.	voice	.	151.04	D:maj
4d	Hey	4f#	Hey	.	.	.	B	.	.
4c#	hey	4e	hey	.	.	.	B	.	.
[8B	hey	[8d	hey	.	.	.	B	.	.
=117	=117	=117	=117	=117	=117	=117	=117	=117	=117
4B]	_	4d]	_	1Bm	.	voice	.	152.373	B:min
4r	.	4r	.	.	.	.	.	.	.
2r	.	2r	.	.	.	.	.	.	.
=118	=118	=118	=118	=118	=118	=118	=118	=118	=118
4.r	.	4.r	.	1Bm	.	voice	.	153.706	B:min
4B	hey	4e	hey	.	.	.	B	.	.
4B	hey	4d	hey	.	.	.	B	.	.
[8A#	hey	[8c#	hey	.	.	.	B	.	.
=119	=119	=119	=119	=119	=119	=119	=119	=119	=119
*>Letter>A	*>Letter>A	*>Letter>A	*>Letter>A	*>Letter>A	*>Letter>A	*>Letter>A	*>Letter>A	*>Letter>A	*>Letter>A
*>Label>Trans	*>Label>Trans	*>Label>Trans	*>Label>Trans	*>Label>Trans	*>Label>Trans	*>Label>Trans	*>Label>Trans	*>Label>Trans	*>Label>Trans
8A#]	_	8c#]	_	1F#m	newline	guitar	.	155.038	F#:5
8r	.	8r	.	.	.	.	.	.	.
4r	.	4r	.	.	.	.	.	.	.
2r	.	2r	.	.	.	.	.	.	.
=120	=120	=120	=120	=120	=120	=120	=120	=120	=120
1r	.	1r	.	1F#m	.	guitar	.	156.355	F#:5
=121	=121	=121	=121	=121	=121	=121	=121	=121	=121
1r	.	1r	.	1F#m	.	guitar	.	157.671	F#:5
=122	=122	=122	=122	=122	=122	=122	=122	=122	=122
1r	.	1r	.	1F#m	.	guitar	.	158.987	F#:5
=123	=123	=123	=123	=123	=123	=123	=123	=123	=123
*>Letter>B	*>Letter>B	*>Letter>B	*>Letter>B	*>Letter>B	*>Letter>B	*>Letter>B	*>Letter>B	*>Letter>B	*>Letter>B
*>Label>Verse	*>Label>Verse	*>Label>Verse	*>Label>Verse	*>Label>Verse	*>Label>Verse	*>Label>Verse	*>Label>Verse	*>Label>Verse	*>Label>Verse
4r	.	4r	.	1F#m	newline	voice	.	160.303	F#:5
8e	Sit-	8g#	Sit-	.	.	.	.	.	.
8e	-ting	8g#	-ting	.	.	.	.	.	.
8d#	on	8f#	on	.	.	.	.	.	.
4d#	a	4f#	a	.	.	.	.	.	.
[8c#	so-	[8e	so-	.	.	.	.	.	.
=124	=124	=124	=124	=124	=124	=124	=124	=124	=124
8c#]	_	8e]	_	1F#m	.	voice	.	161.604	F#:5
4.c#	-fa	4.e	-fa	.	.	.	.	.	.
8B	on	8d#	on	.	.	.	.	.	.
4B	a	4d#	a	.	.	.	.	.	.
[8A#	Sun-	[8c#	Sun-	.	.	.	.	.	.
=125	=125	=125	=125	=125	=125	=125	=125	=125	=125
4A#]	_	4c#]	_	1F#m	.	voice	.	162.904	F#:5
8B	-day	8d#	-day	.	.	.	.	.	.
4.A#	af-	4.c#	af-	.	.	.	.	.	.
8G#	-ter-	8B	-ter-	.	.	.	.	.	.
[8F#	-noon	[8A#	-noon	.	.	.	.	.	.
=126	=126	=126	=126	=126	=126	=126	=126	=126	=126
4F#]	_	4A#]	_	1F#m	.	voice	.	164.204	F#:5
4r	.	4r	.	.	.	.	.	.	.
2r	.	2r	.	.	.	.	.	.	.
=127	=127	=127	=127	=127	=127	=127	=127	=127	=127
1r	.	1r	.	1F#m	.	voice	.	165.505	F#:5
=128	=128	=128	=128	=128	=128	=128	=128	=128	=128
*clefF4	*	*clefF4	*	*	*	*	*	*	*
4r	.	4r	.	1BMm	newline	voice	.	166.805	B:7
8BB	Go-	8BB	Go-	.	.	.	.	.	.
8BB	-ing	8BB	-ing	.	.	.	.	.	.
4D#	to	4D#	to	.	.	.	.	.	.
8F#	the	8F#	the	.	.	.	.	.	.
[8B	can-	[8B	can-	.	.	.	.	.	.
=129	=129	=129	=129	=129	=129	=129	=129	=129	=129
4B]	_	4B]	_	1BMm	.	voice	.	168.102	B:7
8D#	-di-	8D#	-di-	.	.	.	.	.	.
4.D#	-dates'	4.D#	-dates'	.	.	.	.	.	.
8F#	de-	8F#	de-	.	.	.	.	.	.
[8B	-bate	[8B	-bate	.	.	.	A	.	.
=130	=130	=130	=130	=130	=130	=130	=130	=130	=130
4B]	_	4B]	_	1BMm	.	voice	.	169.399	B:7
4r	.	4r	.	.	.	.	.	.	.
2r	.	2r	.	.	.	.	.	.	.
=131	=131	=131	=131	=131	=131	=131	=131	=131	=131
1r	.	1r	.	1BMm	.	voice	.	170.696	B:7
=132	=132	=132	=132	=132	=132	=132	=132	=132	=132
*clefG2	*	*clefG2	*	*	*	*	*	*	*
4r	.	4r	.	1EM	newline	voice	.	171.993	E:maj
8e	Laugh	8g#	Laugh	.	.	.	.	.	.
8e	a-	8g#	a-	.	.	.	.	.	.
8e	-bout	8g#	-bout	.	.	.	.	.	.
8d	_	8f#	_	.	.	.	.	.	.
4d	it	4f#	it	.	.	.	.	.	.
=133	=133	=133	=133	=133	=133	=133	=133	=133	=133
4c#	shout	4e	shout	1AM	.	voice	.	173.303	A:maj
8c#	a-	8e	a-	.	.	.	.	.	.
4B	-bout	4d	-bout	.	.	.	.	.	.
4.A	it	4.c#	it	.	.	.	.	.	.
=134	=134	=134	=134	=134	=134	=134	=134	=134	=134
4d	When	4f#	When	2DM	.	voice	.	174.614	D:maj
4d	you've	4f#	you've	.	.	.	.	.	.
4c#	got	4e	got	2DM	.	voice	.	175.269	D:maj/7
8c#	to	8e	to	.	.	.	.	.	.
[8B	choose	[8d	choose	.	.	.	D	.	.
=135	=135	=135	=135	=135	=135	=135	=135	=135	=135
2B]	_	2d]	_	1Bm	.	voice	.	175.925	B:min
2r	.	2r	.	.	.	.	.	.	.
=136	=136	=136	=136	=136	=136	=136	=136	=136	=136
1r	.	1r	.	1Bm	.	voice	.	177.235	B:min
=137	=137	=137	=137	=137	=137	=137	=137	=137	=137
4r	.	4r	.	1F#Mm	newline	voice	.	178.546	F#:7
8c#	Ev-	8c#	Ev-	.	.	.	.	.	.
8c#	-ery	8c#	-ery	.	.	.	.	.	.
4c#	way	4c#	way	.	.	.	.	.	.
4B	you	4B	you	.	.	.	.	.	.
=138	=138	=138	=138	=138	=138	=138	=138	=138	=138
8A#	look	8A#	look	1F#Mm	.	voice	.	179.851	F#:7
4.A#	at	4.A#	at	.	.	.	.	.	.
4G#	this	4G#	this	.	.	.	.	.	.
8F#	you	8F#	you	.	.	.	.	.	.
[8B	lose	[8B	lose	.	.	.	D	.	.
=139	=139	=139	=139	=139	=139	=139	=139	=139	=139
2B]	_	2B]	_	1EMm	.	voice	.	181.156	E:7
2r	.	2r	.	.	.	.	.	.	.
=140	=140	=140	=140	=140	=140	=140	=140	=140	=140
4r	.	4r	.	1EMm	.	voice	.	182.461	E:7
4G#	Where	4B	Where	.	.	.	.	.	.
4A	have	4c#	have	.	.	.	.	.	.
4B	you	4d	you	.	.	.	.	.	.
=141	=141	=141	=141	=141	=141	=141	=141	=141	=141
*>Letter>C	*>Letter>C	*>Letter>C	*>Letter>C	*>Letter>C	*>Letter>C	*>Letter>C	*>Letter>C	*>Letter>C	*>Letter>C
*>Label>Chorus	*>Label>Chorus	*>Label>Chorus	*>Label>Chorus	*>Label>Chorus	*>Label>Chorus	*>Label>Chorus	*>Label>Chorus	*>Label>Chorus	*>Label>Chorus
2c#	gone	2e	gone	1AM	newline	voice	.	183.766	A:maj
4c#	Joe	4e	Joe	.	.	.	.	.	.
8d	Di-	8f#	Di-	.	.	.	.	.	.
[8c#	-Ma-	[8f#	-Ma-	.	.	.	.	.	.
=142	=142	=142	=142	=142	=142	=142	=142	=142	=142
8c#]	_	8f#]	_	1F#m	.	voice	.	185.105	F#:min
4B	-ggi-	4f#	-ggi-	.	.	.	.	.	.
4A	-o	4c#	-o	.	.	.	A	.	.
4A	Our	4c#	Our	.	.	.	.	.	.
[8e	Na-	[8a	Na-	.	.	.	.	.	.
=143	=143	=143	=143	=143	=143	=143	=143	=143	=143
8e]	_	8a]	_	1AM	.	voice	.	186.445	A:maj
4c#	-tion	4e	-tion	.	.	.	.	.	.
4.c#	turns	4.e	turns	.	.	.	.	.	.
8d	it's	8f#	it's	.	.	.	.	.	.
[8c#	lone-	[8f#	lone-	.	.	.	A	.	.
=144	=144	=144	=144	=144	=144	=144	=144	=144	=144
4c#]	_	4f#]	_	1F#m	.	voice	.	187.784	F#:min
8B	-ly	8f#	-ly	.	.	.	.	.	.
4.A	eyes	4.c#	eyes	.	.	.	.	.	.
8B	to	8d	to	.	.	.	.	.	.
[8A	you	[8d	you	.	.	.	D	.	.
=145	=145	=145	=145	=145	=145	=145	=145	=145	=145
4A]	_	4d]	_	1DM	newline	voice	.	189.123	D:maj
4r	.	4r	.	.	.	.	.	.	.
2r	.	2r	.	.	.	.	.	.	.
=146	=146	=146	=146	=146	=146	=146	=146	=146	=146
2r	.	2r	.	1DM	.	voice	.	190.425	D:maj
8d	Woo	8f#	Woo	.	.	.	D	.	.
4c#	woo	4e	woo	.	.	.	D	.	.
[8B	woo	[8e	woo	.	.	.	D	.	.
=147	=147	=147	=147	=147	=147	=147	=147	=147	=147
4B]	_	4e]	_	1EM	.	voice	.	191.727	E:maj
4r	.	4r	.	.	.	.	.	.	.
2r	.	2r	.	.	.	.	.	.	.
=148	=148	=148	=148	=148	=148	=148	=148	=148	=148
4r	.	4r	.	1EM	.	voice	.	193.029	E:maj
4G#	What's	4B	What's	.	.	.	.	.	.
4A	that	4c#	that	.	.	.	.	.	.
8B	you	8d	you	.	.	.	.	.	.
[8c#	say	[8e	say	.	.	.	B	.	.
=149	=149	=149	=149	=149	=149	=149	=149	=149	=149
2c#]	_	2e]	_	1AM	newline	voice	.	194.331	A:maj
8c#	Mr-	8e	Mr-	.	.	.	.	.	.
4d	-s.	4f#	-s.	.	.	.	.	.	.
[8c#	Ro-	[8f#	Ro-	.	.	.	.	.	.
=150	=150	=150	=150	=150	=150	=150	=150	=150	=150
8c#]	_	8f#]	_	1F#m	.	voice	.	195.644	F#:min
4B	-bin-	4f#	-bin-	.	.	.	.	.	.
4.A	-son	4.c#	-son	.	.	.	.	.	.
4r	.	4r	.	.	.	.	.	.	.
=151	=151	=151	=151	=151	=151	=151	=151	=151	=151
4e	Jolt-	4a	Jolt-	1AM	.	voice	.	196.958	A:maj
8c#	-ing	8e	-ing	.	.	.	.	.	.
4.c#	Joe	4.e	Joe	.	.	.	A	.	.
4d	has	4f#	has	.	.	.	.	.	.
=152	=152	=152	=152	=152	=152	=152	=152	=152	=152
4c#	left	4f#	left	1F#m	.	voice	.	198.272	F#:min
8B	and	8f#	and	.	.	.	.	.	.
4.A	gone	4.c#	gone	.	.	.	.	.	.
8B	a-	8d	a-	.	.	.	.	.	.
[8A	-way	[8d	-way	.	.	.	B	.	.
=153	=153	=153	=153	=153	=153	=153	=153	=153	=153
2A]	_	2d]	_	1DM	newline	voice	.	199.586	D:maj
2r	.	2r	.	.	.	.	.	.	.
=154	=154	=154	=154	=154	=154	=154	=154	=154	=154
4r	.	4r	.	1DM	.	voice	.	200.924	D:maj
8r	.	8r	.	.	.	.	.	.	.
4d	Hey	4f#	Hey	.	.	.	B	.	.
4c#	hey	4e	hey	.	.	.	B	.	.
[8B	hey	[8d	hey	.	.	.	B	.	.
=155	=155	=155	=155	=155	=155	=155	=155	=155	=155
2B]	_	2d]	_	1Bm	.	voice	.	202.262	B:min
2r	.	2r	.	.	.	.	.	.	.
=156	=156	=156	=156	=156	=156	=156	=156	=156	=156
4r	.	4r	.	1Bm	.	voice	.	203.601	B:min
8r	.	8r	.	.	.	.	.	.	.
4B	Hey	4e	Hey	.	.	.	B	.	.
4B	hey	4d	hey	.	.	.	B	.	.
[8A#	hey	[8c#	hey	.	.	.	B	.	.
=157	=157	=157	=157	=157	=157	=157	=157	=157	=157
*>Letter>A	*>Letter>A	*>Letter>A	*>Letter>A	*>Letter>A	*>Letter>A	*>Letter>A	*>Letter>A	*>Letter>A	*>Letter>A
*>Label>Outro	*>Label>Outro	*>Label>Outro	*>Label>Outro	*>Label>Outro	*>Label>Outro	*>Label>Outro	*>Label>Outro	*>Label>Outro	*>Label>Outro
8A#]	_	8c#]	_	1F#m	newline	guitar	.	204.939	F#:5
8r	.	8r	.	.	.	.	.	.	.
4r	.	4r	.	.	.	.	.	.	.
2r	.	2r	.	.	.	.	.	.	.
=158	=158	=158	=158	=158	=158	=158	=158	=158	=158
1r	.	1r	.	1F#m	.	guitar	.	206.236	F#:5
=159	=159	=159	=159	=159	=159	=159	=159	=159	=159
1r	.	1r	.	1F#m	.	guitar	.	207.532	F#:5
=160	=160	=160	=160	=160	=160	=160	=160	=160	=160
1r	.	1r	.	1F#m	.	guitar	.	208.829	F#:5
=161	=161	=161	=161	=161	=161	=161	=161	=161	=161
1r	.	1r	.	1F#m	newline	guitar	.	210.125	F#:5
=162	=162	=162	=162	=162	=162	=162	=162	=162	=162
1r	.	1r	.	1F#m	.	guitar	.	211.434	F#:5
=163	=163	=163	=163	=163	=163	=163	=163	=163	=163
1r	.	1r	.	1F#m	.	guitar	.	212.742	F#:5
=164	=164	=164	=164	=164	=164	=164	=164	=164	=164
1r	.	1r	.	1F#m	.	guitar	.	214.051	F#:5
=165	=165	=165	=165	=165	=165	=165	=165	=165	=165
1r	.	1r	.	1F#m	newline	guitar	.	215.36	F#:5
=166	=166	=166	=166	=166	=166	=166	=166	=166	=166
1r	.	1r	.	1F#m	.	guitar	.	216.67	F#:5
=167	=167	=167	=167	=167	=167	=167	=167	=167	=167
1r	.	1r	.	1F#m	.	guitar	.	217.98	F#:5
=168	=168	=168	=168	=168	=168	=168	=168	=168	=168
1r	.	1r	.	1F#m	.	guitar	.	219.29	F#:5
=169	=169	=169	=169	=169	=169	=169	=169	=169	=169
*>Label>>Fadeout	*>Label>>Fadeout	*>Label>>Fadeout	*>Label>>Fadeout	*>Label>>Fadeout	*>Label>>Fadeout	*>Label>>Fadeout	*>Label>>Fadeout	*>Label>>Fadeout	*>Label>>Fadeout
1r	.	1r	.	1C#Mm	newline	guitar	.	220.6	C#:7/4
=170	=170	=170	=170	=170	=170	=170	=170	=170	=170
1r	.	1r	.	1C#Mm	.	guitar	.	221.933	C#:7/4
=171	=171	=171	=171	=171	=171	=171	=171	=171	=171
1r	.	1r	.	1F#m	newline	guitar	.	223.266	F#:5
=172	=172	=172	=172	=172	=172	=172	=172	=172	=172
1r	.	1r	.	1F#m	.	guitar	.	224.575	F#:5
=173	=173	=173	=173	=173	=173	=173	=173	=173	=173
1r	.	1r	.	1F#m	.	guitar	.	225.883	F#:5
=174	=174	=174	=174	=174	=174	=174	=174	=174	=174
1r	.	1r	.	1F#m	.	guitar	.	227.191	F#:5
=175	=175	=175	=175	=175	=175	=175	=175	=175	=175
1r	.	1r	.	1F#m	newline	guitar	.	228.5	F#:5
=176	=176	=176	=176	=176	=176	=176	=176	=176	=176
1r	.	1r	.	1F#m	.	guitar	.	229.825	F#:5
=177	=177	=177	=177	=177	=177	=177	=177	=177	=177
1r	.	1r	.	1F#m	.	guitar	.	231.15	F#:5
=178	=178	=178	=178	=178	=178	=178	=178	=178	=178
1r	.	1r	.	1F#m	.	guitar	.	232.475	F#:5
=179	=179	=179	=179	=179	=179	=179	=179	=179	=179
1r	.	1r	.	1F#m	newline	guitar	.	233.8	F#:5
=180	=180	=180	=180	=180	=180	=180	=180	=180	=180
1r	.	1r	.	1F#m	.	guitar	.	234.95	F#:5
=181	=181	=181	=181	=181	=181	=181	=181	=181	=181
1r	.	1r	.	1F#m	.	guitar	.	236.099	F#:5
=182	=182	=182	=182	=182	=182	=182	=182	=182	=182
1r	.	1r	.	1F#m	.	guitar	.	237.249	F#:5
=183	=183	=183	=183	=183	=183	=183	=183	=183	=183
1r	.	1r	.	1F#m	.	guitar	.	238.399	F#:5
=184	=184	=184	=184	=184	=184	=184	=184	=184	=184
1r	.	1r	.	1F#m	.	guitar	.	239.548	F#:5
r;	.	r;	.	1r;	.	r	.	240.698	N.C.
r;	.	r;	.	1r;	.	r	.	245.002	N.C.
*-	*-	*-	*-	*-	*-	*-	*-	*-	*-
!!!BillboardChartDate: 1968/06/01
!!!BillboardPeak: 1
!!!BillboardWeeksOnChart: 13
!!!COC: Simon & Garfunkel
!!!ENC: Nathaniel Condit-Schultz
!!!EST: Awating manual error checking and editing.
!!!OTL: Mrs. Robinson
!!!RDF**chordsym: original McGill chord annotation + (implied pitch class set, with bass pitch in first position)
!!!RDF**harmony: **recip + pitch class of root + harmonic quality
!!!RDF**leadinstrument: original McGill primary instrumentation annotation
!!!RDF**phrase: newline = linebreak in original McGill transcription
!!!RDF**timestamp: McGill audio timestamp in seconds
!!!RDT: 2017/01/12/
!!!SampleActualRank: 1
!!!SampleID#: 0616
!!!SampleTargetRank: 2
